X: 94
T:Tramps and Hawkers
M:3/4
L:1/4
Q:3/4=80
K:C
% major/mixolydian hexatonic
C   |E2 E|D2  C|D2 E|C2 A,|G,2 A,|C2  D|C3- |C2
E   |G2 G|E F G|A2 A|G2 E |C2  D |E D C|A,3-|A,2
E   |G2 G|E F G|A2 A|G2 E |C2  D |E D C|A,3-|A,2
C/D/|E2 E|D2  C|D2 E|C2 A,|G,2 A,|C2  D|C3- |C2|]

